packages/ffe-icons/icons/filled/xl/other_houses.svg

<svg xmlns="http://www.w3.org/2000/svg" height="48" viewBox="0 -960 960 960" width="48"><path d="M180.001-197.694v-331.768l-65.385 50.616q-7.307 6.076-16.422 4.461-9.115-1.615-15.192-9.308-6.077-7.307-4.654-16.23t9.115-15.384l357.691-272.845q8.13-5.615 16.736-8.923t18.166-3.308q9.559 0 17.993 3.308t16.412 8.923l358.691 273.845q7.692 6.077 8.808 15 1.115 8.922-4.962 16.686-6.077 7.236-14.692 8.544-8.615 1.307-16.307-4.769l-66-50.616v331.768q0 23.75-16.972 40.721-16.971 16.972-40.721 16.972H237.694q-23.75 0-40.721-16.972-16.972-16.971-16.972-40.721ZM320-364.616q14.692 0 25.038-10.346T355.384-400q0-14.692-10.346-25.038T320-435.384q-14.692 0-25.038 10.346T284.616-400q0 14.692 10.346 25.038T320-364.616Zm160 0q14.692 0 25.038-10.346T515.384-400q0-14.692-10.346-25.038T480-435.384q-14.692 0-25.038 10.346T444.616-400q0 14.692 10.346 25.038T480-364.616Zm160 0q14.692 0 25.038-10.346T675.384-400q0-14.692-10.346-25.038T640-435.384q-14.692 0-25.038 10.346T604.616-400q0 14.692 10.346 25.038T640-364.616Z"/></svg>

<svg xmlns="http://www.w3.org/2000/svg" height="40" viewBox="0 -960 960 960" width="40"><path d="M180-202.57V-523.1l-60.51 46.89q-8.39 6.62-18.39 5-10-1.61-16.61-10.25-6.62-8.39-5.09-18.26 1.52-9.87 9.96-16.74l352.61-269.46q8.75-6.16 18.27-9.57 9.51-3.41 19.82-3.41 10.3 0 19.64 3.41 9.35 3.41 17.94 9.57l353.61 270.13q8.44 6.61 9.66 16.48 1.22 9.87-5.4 18.59-6.61 8.1-16.28 9.51-9.67 1.41-18.1-5.2L780-523.1v320.53q0 25.78-18.4 44.17-18.39 18.4-44.17 18.4H242.57q-25.78 0-44.17-18.4-18.4-18.39-18.4-44.17Zm140-162.05q14.69 0 25.04-10.34 10.34-10.35 10.34-25.04t-10.34-25.04q-10.35-10.34-25.04-10.34t-25.04 10.34q-10.34 10.35-10.34 25.04t10.34 25.04q10.35 10.34 25.04 10.34Zm160 0q14.69 0 25.04-10.34 10.34-10.35 10.34-25.04t-10.34-25.04q-10.35-10.34-25.04-10.34t-25.04 10.34q-10.34 10.35-10.34 25.04t10.34 25.04q10.35 10.34 25.04 10.34Zm160 0q14.69 0 25.04-10.34 10.34-10.35 10.34-25.04t-10.34-25.04q-10.35-10.34-25.04-10.34t-25.04 10.34q-10.34 10.35-10.34 25.04t10.34 25.04q10.35 10.34 25.04 10.34Z"/></svg>
